X:69
T:Goofus
C:Dempsey Young
N:From the Lost and Found album "Just Pickin" 1994 Transcribed by Mike Stangeland
L:1/8
Q:1/4=230
M:4/4
K:G
ge cB ^AB ce | fc BA ^GA cd | ec AG FD EF | G2 D2 E2 =F2 | "D"[d2F2] [dF][AD] [BF][dF] [BF][AD] | 
[d2F2] [dF][AD] [BF][dF] [BF][AD] | "G"[G2B,2] [GB,][DG,] [EB,][GB,] [EB,][DG,] | 
[G2B,2] [G2B,2] [E2B,2] [=F2B,2] | "D7"[F2C2] [FC][DC] [EC][FC] [EC][DC] | [F2C2] [FC][DC] [EC][FC] [E2C2] | 
(3"G"DEG {^A}B2 (3DEG d2 | dA ^AB =A^G =G=F | "D"[d2F2] [dF][AD] [BF][dF] [BF][AD] | 
[d2F2] [dF][AD] [BF][dF] [BF][AD] | "G"[G2B,2] [GB,][DG,] [EB,][GB,] [EB,][GB,] | 
z=F GG ^F2 =F2 | "E"E2 EF ^GE FG | "A"A^G AB "C"c3c | "D"dB cA BG AF | "G"G2 D2 E2 =F2 | 
"D"[d2F2] [dF][AD] [BF][dF] [BF][AD] | [d2F2] [dF][AD] [BF][dF] [BF][AD] | "G"[G2B,2] [GB,][DG,] [EB,][GB,] [EB,][DG,] | 
[G2B,2] [G2B,2] [E2B,2] [=F2B,2] | "D7"[F2C2] [FC][DC] [EC][FC] [EC][DC] | [F2C2] [FC][DC] [EC][FC] [E2C2] | 
"G"(3[D2G,2][D2^G,2] [D2A,2] (3[D2^A,2][D2=A,2] [D2G,2] | [D4G,4] [B3G3][AD] | 
"D"[d2F2] [dF][AD] [BF][dF] [BF][AD] | [d2F2] [dF][AD] [BF][dF] [BF][AD] | "G"[G2B,2] [GB,][DG,] [EB,][GB,] [EB,][GB,] | 
z=F GG ^F2 =F2 | "E"EB, EF ^GE FG | "A"A^G AB "C"c3c | "D"dB cA BG AF | "G"G8 | 
[G2B,2] [AB,][GB,] [A2B,2] [G2B,2] | [A2B,2] [AB,][GB,] [A2B,2] [G2B,2] | "F#"[F2^A,2] [^GA,][FA,] [G2A,2] [F2A,2] | 
[^G2^A,2] [GA,][FA,] [G2A,2] [F2A,2] | "F"[=F2A,2] [GA,][FA,] [G2A,2] [F2A,2] | 
[G2A,2] [GA,][=FA,] [G2A,2] [F2A,2] | "E"(3[E^G,][EG,][EG,] [E2G,2] (3[G^C][GC][GC] [G2C2] | 
"D7"(3[FC][FC][FC] [F2C2] "G"[B4G4] | (3[GB,][GB,][GB,] (3[GB,][GB,][GB,] (3[AB,][AB,][AB,] (3[AB,][AB,][AB,] | 
(3[GB,][GB,][GB,] (3[GB,][GB,][GB,] (3[AB,][AB,][AB,] (3[AB,][AB,][AB,] | "F#"(3[F^A,][FA,][FA,] (3[FA,][FA,][FA,] (3[^GA,][GA,][GA,] (3[GA,][GA,][GA,] | 
(3[F^A,][FA,][FA,] (3[FA,][FA,][FA,] (3[^GA,][GA,][GA,] (3[GA,][GA,][GA,] | "F"[=F2A,2] [FA,][FA,] [GA,][FA,] [G2A,2] | 
[=FA,][FA,] [FA,][FA,] [GA,][GA,] [G2A,2] | "E"[E^G,][EG,] [E2G,2] "A"[G^C][GC] [G2C2] | 
"D7"[F2C2] [F2C2] "G"[F2C2] E2 | "D"[d2F2] F2 c2 F2 | B2 FA z2 D2 | "G"G4 A4 | 
^A4 B2 E2 | "D7"[d2F2] F2 c2 F2 | B2 FA z4 | "G"G2 GG E2 D2 | z2 [g2^A2] [g2B2] E2 | 
"D"[dF]F FF cF FF | BF FA FF D2 | "G"[B4G4] [^A4F4] | "G7"[A=F][AF] [A2F2] [AF][AF] [AF][AF] | 
"E"E2 EF ^GE FG | "A"A^G AB "C"c3c | "D"dB cA BG AF | "G"G4 G4 | ge cB ^AB ce | 
fc BA ^GA cd | ec AG FD EF | G8 | z8 | 


